X:1
T:Title
%%score 1 { 2 | 3 }
L:1/8
Q:1/4=90
M:6/8
K:A
V:1 treble nm="Grand Piano, Soprano"
V:2 bass nm="Choir Pad, Cayman, 98.98 D"
V:3 bass 
V:1
 [A,C]/[B,D]/[CE][CE] [CE][DF][EG] | [FA] [EA]2- [EA] [CE]2 | [EA][GB][GB] [GB][GB][FA] | %3
w: By~William~Batchelder~Bradbury,~1874 * * * * * *|||
 [GB] [Ac]2- [Ac]2- [Ac]/ z/ | [A,C]/[B,D]/[CE][CE] [CE][DF][EG] | [FA] [EA]2- [EA] [CE]2 | %6
w: |||
 [EA]/[EA]/[Ec][DB] [CA][DB][CA] | [B,G] [CA]2- [CA]2- [CA]/ z/ | [EG]/[FA]/[GB][GB] [GB][GB][Ac] | %9
w: |||
 [GB] [GB]2- [GB] [EG]2 | [GB]/[GB]/[GB][FA] [EG][FA][EG] | [^DF] E2- E2- E/ z/ | %12
w: |||
 [A,C]/[B,D]/[CE][CE] [CE][DF][EG] | [FA] [EA]2- [EA] [CE]2 | [EA]/[EA]/[Ec][DB] [CA][DB][CA] | %15
w: |||
 [B,G] [CA]2- [CA]3- | [CA]3 z3 |] %17
w: ||
V:2
 A,A,A, A,A,A, | A,[K:treble] C2- C A,2 | CB,B, B,EE | E E2- E2- E/ z/ | A,/A,/A,A, A,A,A, | %5
 A, C2- C A,2 | A,/A,/A,G, A,G,A, | B, A,2- A,2- A,/ z/ | E,E,E, E,E,E, | E, E,2- E, E,2 | %10
 E,/E,/B,,B,, B,,B,,B,, | B,, E,2- E,2- E,/ z/ | A,/A,/A,A, A,A,A, | A, C2- C A,2 | %14
 A,/A,/A,B, CG,A, | B, A,2- A,3- | A,3 z3 |] %17
V:3
 A,,A,,A,, A,,D,D, | D, A,,2- A,, A,,2 | A,,E,E, E,E,E, | E, A,2- A,2- A,/ z/ | %4
 A,,/A,,/A,,A,, A,,D,D, | D, A,,2- A,, A,,2 | C,/C,/E,E, E,E,E, | E, A,,2- A,,2- A,,/ z/ | z6 | %9
 z6 | z6 | z6 | A,,/A,,/A,,A,, A,,D,D, | D, A,,2- A,, A,,2 | C,/C,/E,E, E,E,E, | E, A,,2- A,,3- | %16
 A,,3 z3 |] %17

